X:1
T: the Cumberland Reel or Una's Lock
S:Longman and Broderip's Second Selection of the Most Favorite Country Dances, Reels, &c. [c 1790/91]
Q:1/4=80
Z:Bruce Olson 
M:C|
L:1/4
% Contributed 19991129194121 by John Chambers jc@trillian.mit.edu
K:Bb
F/|Bb/g/ f/d/c/B/|A/F/c/A/ d/F/c/F/|Bb/g/ f/d/c/B/|\
F/B/A/c/ d/B/B/:|
|:d/|B/G/F3/4E/4 D/E/F/D/| E/C/C/B/ B/G/F/A/|\
B3/4G/4F3/4E/4 D/E/F/D/|B,/B/A/B/ d/B/B/:|]
